static/images/checkout/environmental_logo_simple.svg

<svg width="80" height="81" viewBox="0 0 80 81" fill="none" xmlns="http://www.w3.org/2000/svg">
<g clip-path="url(#clip0_16_271)">
<path d="M62.3557 12.9894C66.716 16.4927 70.166 20.9688 72.4257 26.0305C62.3856 31.2834 51.1635 32.5415 41.307 29.4567C32.6259 26.7394 25.8519 21.0084 21.6211 12.8385C29.9142 11.8624 42.9864 16.6057 53.5462 22.064L55.9548 17.4042C49.6947 14.1681 37.9755 8.77031 27.6219 7.65904C38.9377 3.26885 52.2328 4.85626 62.3557 12.9894ZM11.0953 12.5887C10.9643 12.7267 10.8347 12.8667 10.7053 13.0072C10.5898 13.1327 10.4747 13.2578 10.3608 13.3845C10.2798 13.4748 10.1992 13.5656 10.1188 13.6572C9.95364 13.8441 9.79001 14.0321 9.62829 14.2221C9.59395 14.2625 9.55957 14.3032 9.52539 14.344C3.58636 21.3719 0 30.4493 0 40.3496H5.24564C5.24564 34.4792 6.69622 28.9418 9.25472 24.0739L9.26105 24.0771C10.3139 22.0708 11.5733 20.1505 13.0045 18.3698C13.5561 17.683 14.1286 17.0229 14.7199 16.3894C14.7324 16.3761 14.7447 16.3628 14.7571 16.3494C15.0404 16.0468 15.3282 15.7506 15.62 15.4601C15.6602 15.4198 15.7013 15.3806 15.7418 15.3411C15.9004 15.1845 16.0624 15.0332 16.2233 14.8803C16.3521 14.7749 16.4798 14.6688 16.6164 14.5716C21.4223 24.2445 29.5945 31.2874 39.7403 34.463C43.8003 35.7337 48.0553 36.3599 52.3684 36.3599C60.7158 36.3599 69.2787 34.0147 77.0588 29.4591L78.9577 28.3466L78.1919 26.2831C75.6675 19.4795 71.3277 13.4688 65.6415 8.90024C58.1878 2.91214 49.2384 0.0129174 40.349 0.0258297V0.000408326C32.0539 0.000408326 24.3362 2.51751 17.9174 6.827C17.8875 6.84677 17.8571 6.86614 17.8271 6.88632C17.7513 6.93756 17.6767 6.99042 17.6014 7.04207C15.9479 8.17109 14.3656 9.43368 12.8703 10.8282C12.3194 11.2834 11.8014 11.7894 11.3224 12.3523C11.3077 12.3676 11.2933 12.3825 11.2788 12.3979C11.2176 12.4612 11.1561 12.5246 11.0953 12.5887" fill="#30623D"/>
<path d="M17.645 67.6649C13.2849 64.1619 9.83487 59.6862 7.57509 54.6241C17.6151 49.3712 28.8385 48.1127 38.6935 51.1975C47.3751 53.9148 54.1496 59.6462 58.3804 67.817C50.0875 68.7934 37.0145 64.0485 26.4545 58.5906L24.046 63.2508C30.3077 66.487 42.0285 71.8831 52.3834 72.9936C41.0662 77.3854 27.7682 75.7983 17.645 67.6649ZM62.4272 73.5929C62.5688 73.4959 62.7097 73.3983 62.8501 73.2993C62.9623 73.2204 63.0736 73.1405 63.185 73.0601C63.3787 72.9214 63.5712 72.7812 63.7624 72.6389C63.7842 72.6224 63.8056 72.6058 63.8274 72.5893C64.8374 71.833 65.8167 71.0241 66.7625 70.1638C66.7654 70.1613 66.7678 70.1592 66.7702 70.1568C66.9106 70.029 67.0518 69.9018 67.1907 69.7715C67.7051 69.341 68.191 68.8672 68.6421 68.3419C68.7066 68.2749 68.7712 68.2083 68.8354 68.1406C69.069 67.8959 69.2994 67.6479 69.527 67.3972C69.5669 67.3533 69.6057 67.3082 69.6456 67.2637C69.8659 67.0188 70.0834 66.7707 70.2981 66.5204C70.3251 66.4885 70.3518 66.4567 70.3788 66.4249C76.3758 59.3808 80.0009 50.2589 80.0009 40.3047H74.7553C74.7553 46.1754 73.3046 51.7128 70.746 56.5808L70.7399 56.5775C69.6868 58.5838 68.4274 60.5042 66.9962 62.2848C66.4458 62.9704 65.8744 63.6288 65.2841 64.262C65.2695 64.277 65.2554 64.2923 65.2413 64.3075C64.9592 64.6086 64.6727 64.9035 64.3822 65.1929C64.3407 65.2345 64.2979 65.2752 64.2559 65.3163C64.0969 65.473 63.9347 65.6251 63.7733 65.778C63.6458 65.882 63.5195 65.987 63.3847 66.083C58.5789 56.4098 50.4062 49.3673 40.26 46.1916C28.3436 42.4615 14.7412 44.2859 2.94211 51.196L1.04309 52.308L1.80881 54.3716C4.33313 61.1748 8.6732 67.1858 14.3594 71.7543C21.7965 77.7288 30.7213 80.6321 39.5914 80.6316C39.6116 80.6316 39.6316 80.6308 39.6518 80.6308V80.6538C47.7511 80.6538 55.2992 78.2534 61.6258 74.1286C61.6932 74.0851 61.7602 74.0404 61.8272 73.9964C62.0285 73.8632 62.2287 73.7292 62.4272 73.5929Z" fill="#30623D"/>
</g>
<defs>
<clipPath id="clip0_16_271">
<rect width="80" height="80.6537" fill="white"/>
</clipPath>
</defs>
</svg>

<svg xmlns="http://www.w3.org/2000/svg" fill="none" width="128" viewBox="0 0 80 81"><g fill="#30623D" clip-path="url(#a)"><path d="M62.36 12.99a35.1 35.1 0 0 1 10.07 13.04c-10.04 5.25-21.27 6.51-31.12 3.43a32.76 32.76 0 0 1-19.69-16.62c8.3-.98 21.37 3.77 31.93 9.22l2.4-4.66c-6.26-3.23-17.97-8.63-28.33-9.74a35.12 35.12 0 0 1 34.74 5.33Zm-51.26-.4a37.94 37.94 0 0 0-1.57 1.75A40.17 40.17 0 0 0 0 40.35h5.25c0-5.87 1.45-11.4 4-16.28h.01a35.37 35.37 0 0 1 5.46-7.68l.04-.04.86-.89.12-.12.48-.46c.13-.1.26-.21.4-.3a38.46 38.46 0 0 0 23.12 19.88 42.24 42.24 0 0 0 12.63 1.9c8.35 0 16.9-2.35 24.69-6.9l1.9-1.11-.77-2.07A40.3 40.3 0 0 0 40.35.03V0c-8.3 0-16.01 2.52-22.43 6.83l-.1.06-.22.15a40.04 40.04 0 0 0-4.73 3.79c-.55.45-1.07.96-1.55 1.52l-.04.05-.18.19M17.64 67.66A35.09 35.09 0 0 1 7.58 54.62c10.04-5.25 21.26-6.5 31.11-3.42a32.76 32.76 0 0 1 19.69 16.62c-8.3.97-21.37-3.77-31.93-9.23l-2.4 4.66C30.3 66.5 42.03 71.88 52.38 73a35.12 35.12 0 0 1-34.73-5.33Zm44.79 5.93a37.96 37.96 0 0 0 1.33-.95l.07-.05a39.94 39.94 0 0 0 2.94-2.43l.42-.39c.52-.43 1-.9 1.45-1.43l.2-.2.69-.74.12-.14.65-.74.08-.1c6-7.04 9.62-16.16 9.62-26.12h-5.24c0 5.88-1.46 11.41-4.01 16.28h-.01a35.38 35.38 0 0 1-5.46 7.68l-.04.05c-.28.3-.57.6-.86.88l-.12.13-.49.46-.39.3A38.46 38.46 0 0 0 40.26 46.2c-11.92-3.73-25.52-1.9-37.32 5l-1.9 1.12.77 2.06a40.3 40.3 0 0 0 37.78 26.26h.06v.02c8.1 0 15.65-2.4 21.98-6.52l.2-.13.6-.4Z"/></g><defs><clipPath id="a"><path fill="#fff" d="M0 0h80v80.65H0z"/></clipPath></defs></svg>
